code-block-parentheses.svg

<svg fill="currentColor" viewBox="0 0 24 24"><path d="M11.6 3C13.1 4.3 14 6.1 14 8s-.9 3.7-2.4 5l-1.6-.6c1.3-1 2-2.7 2-4.4s-.7-3.4-2-4.4zM4.4 3l1.6.6C4.7 4.6 4 6.3 4 8s.7 3.4 2 4.4l-1.6.6C2.9 11.7 2 9.9 2 8s.9-3.7 2.4-5M22 6v12c0 1.11-.89 2-2 2H4a2 2 0 0 1-2-2v-3h2v3h16V6h-3.97V4H20c1.11 0 2 .89 2 2"/></svg>

<svg  viewBox="0 0 24 24" fill="currentColor"><path  d="M11.6 3C13.1 4.3 14 6.1 14 8S13.1 11.7 11.6 13L10 12.4C11.3 11.4 12 9.7 12 8S11.3 4.6 10 3.6L11.6 3M4.4 3L6 3.6C4.7 4.6 4 6.3 4 8S4.7 11.4 6 12.4L4.4 13C2.9 11.7 2 9.9 2 8S2.9 4.3 4.4 3M22 6V18C22 19.11 21.11 20 20 20H4C2.9 20 2 19.11 2 18V15H4V18H20V6H16.03V4H20C21.11 4 22 4.89 22 6Z"/></svg>
